assets/Atom symbol/Flat/atom_symbol_flat.svg

<svg width="32" height="32" viewBox="0 0 32 32" fill="none" xmlns="http://www.w3.org/2000/svg">
<path d="M2 6C2 3.79086 3.79086 2 6 2H26C28.2091 2 30 3.79086 30 6V26C30 28.2091 28.2091 30 26 30H6C3.79086 30 2 28.2091 2 26V6Z" fill="#8D65C5"/>
<path d="M16 17.75C16.9665 17.75 17.75 16.9665 17.75 16C17.75 15.0335 16.9665 14.25 16 14.25C15.0335 14.25 14.25 15.0335 14.25 16C14.25 16.9665 15.0335 17.75 16 17.75Z" fill="white"/>
<path d="M16.003 28.0041C17.707 28.0036 19.2199 26.1291 20.1727 23.229C23.1608 23.8532 25.5405 23.4796 26.3924 22.004C27.2445 20.5281 26.3778 18.28 24.3425 16.0039C26.3777 13.7279 27.2444 11.4798 26.3924 10.004C25.5401 8.52787 23.1592 8.15453 20.1698 8.77948C19.2156 5.87841 17.7014 4.0036 15.997 4.00403C14.2931 4.00446 12.7802 5.87887 11.8274 8.77887C8.83936 8.15477 6.45971 8.52835 5.60777 10.004C4.75569 11.4798 5.62239 13.7279 7.65759 16.0039C5.62235 18.28 4.75563 20.5281 5.60772 22.004C6.45992 23.48 8.84078 23.8534 11.8301 23.2285C12.7843 26.1296 14.2986 28.0045 16.003 28.0041ZM16.0027 26.5041C15.7804 26.5041 15.4486 26.407 15.0145 25.9855C14.5734 25.5571 14.1075 24.8643 13.6836 23.8912C13.5434 23.5694 13.4111 23.2244 13.2878 22.8583C14.1629 22.5986 15.0735 22.2635 16.0001 21.8552C16.9276 22.2639 17.8391 22.5992 18.715 22.8591C18.5921 23.2244 18.4601 23.5688 18.3204 23.8901C17.897 24.8633 17.4314 25.5564 16.9905 25.985C16.5567 26.4068 16.225 26.504 16.0027 26.5041ZM19.1258 21.4163C18.6978 21.2889 18.2582 21.1414 17.8098 20.9736C18.077 20.8308 18.3445 20.6822 18.6119 20.5278C18.8796 20.3733 19.1424 20.2157 19.4 20.0554C19.3212 20.5276 19.2293 20.982 19.1258 21.4163ZM23.9893 17.9395C24.6202 18.7929 24.9875 19.5427 25.1381 20.1389C25.2862 20.7256 25.2045 21.0615 25.0934 21.254C24.9822 21.4465 24.7322 21.6852 24.1501 21.8502C23.5585 22.0179 22.7255 22.0748 21.6709 21.955C21.3228 21.9155 20.9586 21.8577 20.5807 21.7815C20.7934 20.8933 20.9584 19.9365 21.068 18.9292C21.885 18.3306 22.6306 17.7094 23.2932 17.0813C23.5484 17.3707 23.7808 17.6575 23.9893 17.9395ZM23.9892 14.0685C23.7808 14.3504 23.5484 14.6372 23.2932 14.9266C22.6303 14.2981 21.8842 13.6766 21.0667 13.0778C20.9567 12.071 20.7913 11.1147 20.5784 10.2269C20.9571 10.1505 21.3221 10.0925 21.6708 10.0529C22.7254 9.93317 23.5584 9.99005 24.15 10.1577C24.7321 10.3227 24.9822 10.5614 25.0933 10.754C25.2045 10.9465 25.2862 11.2824 25.138 11.869C24.9874 12.4652 24.6202 13.215 23.9892 14.0685ZM22.2493 16.0039C21.9253 16.3106 21.578 16.6172 21.2089 16.9214C21.2188 16.6182 21.2238 16.3118 21.2237 16.0027C21.2236 15.6943 21.2185 15.3887 21.2085 15.0861C21.5778 15.3904 21.9252 15.6972 22.2493 16.0039ZM19.1235 10.5923C19.2271 11.026 19.3191 11.4798 19.398 11.9512C19.141 11.7914 18.8789 11.6342 18.612 11.4801C18.3446 11.3257 18.077 11.1771 17.8098 11.0343C18.2574 10.8668 18.6963 10.7195 19.1235 10.5923ZM13.2851 9.14884C13.408 8.78354 13.5399 8.43922 13.6796 8.11804C14.103 7.14477 14.5686 6.45171 15.0095 6.0231C15.4433 5.60134 15.775 5.50408 15.9973 5.50403C16.2196 5.50397 16.5514 5.60106 16.9855 6.0226C17.4266 6.45099 17.8925 7.14381 18.3164 8.11686C18.4566 8.43863 18.5889 8.78362 18.7122 9.14968C17.8372 9.4094 16.9266 9.74447 16.0001 10.1527C15.0725 9.74402 14.161 9.40867 13.2851 9.14884ZM10.3293 10.0529C10.6773 10.0924 11.0415 10.1502 11.4193 10.2264C11.2067 11.1146 11.0416 12.0715 10.932 13.0788C10.115 13.6773 9.36945 14.2985 8.70694 14.9266C8.45178 14.6372 8.21935 14.3504 8.01091 14.0685C7.37994 13.215 7.01271 12.4652 6.86212 11.869C6.71394 11.2824 6.79566 10.9465 6.90681 10.754C7.01796 10.5614 7.26799 10.3227 7.85013 10.1577C8.44172 9.99005 9.2747 9.93317 10.3293 10.0529ZM8.01085 17.9395C8.21931 17.6575 8.45175 17.3707 8.70694 17.0813C9.3698 17.7097 10.1158 18.3312 10.9333 18.93C11.0433 19.9368 11.2087 20.8932 11.4215 21.7811C11.0429 21.8575 10.678 21.9155 10.3292 21.955C9.27465 22.0748 8.44167 22.0179 7.85008 21.8502C7.26793 21.6852 7.0179 21.4465 6.90675 21.254C6.7956 21.0615 6.71388 20.7256 6.86206 20.1389C7.01265 19.5427 7.37988 18.7929 8.01085 17.9395ZM9.75079 16.0039C10.0748 15.6973 10.422 15.3907 10.7911 15.0866C10.7812 15.3898 10.7762 15.6962 10.7763 16.0054C10.7764 16.3136 10.7815 16.6192 10.7915 16.9216C10.4223 16.6174 10.0749 16.3107 9.75079 16.0039ZM12.2763 16.005C12.2761 15.2831 12.3052 14.5807 12.3603 13.9032C12.9193 13.5166 13.513 13.14 14.1382 12.7791C14.7631 12.4183 15.3859 12.0925 16.0001 11.8017C16.6142 12.0925 17.237 12.4183 17.862 12.7791C18.4867 13.1398 19.08 13.5161 19.6388 13.9024C19.6941 14.5795 19.7235 15.2816 19.7237 16.0031C19.7239 16.7249 19.6948 17.4274 19.6397 18.1048C19.0807 18.4913 18.487 18.8679 17.8619 19.2288C17.237 19.5896 16.6142 19.9154 16.0001 20.2062C15.386 19.9154 14.7632 19.5896 14.1382 19.2288C13.5134 18.8681 12.92 18.4917 12.3612 18.1054C12.3059 17.4283 12.2765 16.7263 12.2763 16.005ZM12.8765 21.4157C12.7729 20.982 12.6809 20.5281 12.602 20.0566C12.859 20.2164 13.1212 20.3737 13.3882 20.5278C13.6556 20.6822 13.9231 20.8308 14.1904 20.9736C13.7427 21.1411 13.3038 21.2884 12.8765 21.4157ZM14.1904 11.0343C13.9231 11.1771 13.6555 11.3257 13.3882 11.4801C13.1205 11.6347 12.8577 11.7923 12.6 11.9525C12.6788 11.4804 12.7707 11.0259 12.8743 10.5916C13.3023 10.719 13.7419 10.8665 14.1904 11.0343Z" fill="white"/>
</svg>

<svg xmlns="http://www.w3.org/2000/svg" width="32" height="32" fill="none"><path fill="#8D65C5" d="M2 6a4 4 0 0 1 4-4h20a4 4 0 0 1 4 4v20a4 4 0 0 1-4 4H6a4 4 0 0 1-4-4V6Z"/><path fill="#fff" d="M16 17.75a1.75 1.75 0 1 0 0-3.5 1.75 1.75 0 0 0 0 3.5Z"/><path fill="#fff" d="M16.003 28.004c1.704 0 3.217-1.875 4.17-4.775 2.988.624 5.368.25 6.22-1.225.851-1.476-.015-3.724-2.05-6 2.035-2.276 2.901-4.524 2.05-6-.853-1.476-3.234-1.85-6.223-1.225-.954-2.9-2.469-4.775-4.173-4.775-1.704 0-3.217 1.875-4.17 4.775-2.988-.624-5.367-.25-6.22 1.225-.851 1.476.015 3.724 2.05 6-2.035 2.276-2.901 4.524-2.05 6 .853 1.476 3.234 1.85 6.223 1.224.954 2.902 2.469 4.776 4.173 4.776Zm0-1.5c-.223 0-.554-.097-.989-.519-.44-.428-.906-1.12-1.33-2.094-.14-.322-.273-.667-.396-1.033.875-.26 1.785-.595 2.712-1.003.928.409 1.84.744 2.715 1.004-.123.365-.255.71-.395 1.031-.423.973-.889 1.666-1.33 2.095-.433.422-.765.519-.987.52Zm3.123-5.088a20.216 20.216 0 0 1-1.316-.442 27.954 27.954 0 0 0 1.59-.919c-.079.473-.17.927-.274 1.361Zm4.863-3.477c.631.854.998 1.604 1.15 2.2.147.587.066.922-.046 1.115-.11.192-.36.431-.943.596-.591.168-1.424.225-2.48.105a12.87 12.87 0 0 1-1.09-.173c.213-.889.378-1.846.488-2.853a22.991 22.991 0 0 0 2.225-1.848c.255.29.488.576.696.858Zm0-3.87c-.208.281-.44.568-.696.858a22.964 22.964 0 0 0-2.226-1.85 22.957 22.957 0 0 0-.489-2.85c.38-.077.744-.135 1.093-.174 1.054-.12 1.887-.063 2.479.105.582.165.832.403.943.596.111.193.193.528.045 1.115-.15.596-.518 1.346-1.149 2.2Zm-1.74 1.935a20.23 20.23 0 0 1-1.04.917 27.88 27.88 0 0 0 0-1.835c.369.304.716.611 1.04.918Zm-3.125-5.412c.103.434.195.888.274 1.36a28.052 28.052 0 0 0-1.588-.918c.447-.167.886-.315 1.314-.442ZM13.284 9.15c.123-.365.255-.71.395-1.031.423-.973.889-1.666 1.33-2.095.433-.422.765-.519.987-.519.223 0 .554.097.988.519.442.428.907 1.12 1.331 2.094.14.322.273.667.396 1.033-.875.26-1.785.594-2.712 1.003a22.96 22.96 0 0 0-2.715-1.004Zm-2.956.904c.348.04.712.097 1.09.173a22.964 22.964 0 0 0-.487 2.853 22.963 22.963 0 0 0-2.225 1.848c-.255-.29-.488-.577-.696-.858-.631-.854-.998-1.604-1.149-2.2-.148-.587-.066-.922.045-1.115.111-.193.361-.431.943-.596.592-.168 1.425-.225 2.48-.105Zm-2.318 7.886c.208-.282.44-.568.696-.858a22.97 22.97 0 0 0 2.226 1.849c.11 1.007.276 1.963.489 2.851a12.84 12.84 0 0 1-1.093.174c-1.054.12-1.887.063-2.479-.105-.582-.165-.832-.404-.943-.596-.111-.193-.193-.528-.045-1.115.15-.596.518-1.346 1.149-2.2Zm1.74-1.935a20.23 20.23 0 0 1 1.04-.917 27.883 27.883 0 0 0 0 1.835c-.369-.305-.716-.611-1.04-.918Zm2.525.001c0-.722.03-1.424.084-2.102A25.834 25.834 0 0 1 16 11.802a25.904 25.904 0 0 1 3.639 2.1 25.923 25.923 0 0 1 0 4.203A25.893 25.893 0 0 1 16 20.206a25.904 25.904 0 0 1-3.639-2.1 25.919 25.919 0 0 1-.085-2.101Zm.6 5.41a20.219 20.219 0 0 1-.274-1.358 27.922 27.922 0 0 0 1.588.917c-.447.167-.886.314-1.313.442Zm1.314-10.38a27.69 27.69 0 0 0-1.59.918c.079-.473.17-.927.274-1.361.428.127.868.274 1.316.442Z"/></svg>
